packages/flame/svg/Icons/icon-wifi.svg

<?xml version="1.0" encoding="UTF-8"?>
<svg width="16px" height="16px" viewBox="0 0 16 16" version="1.1" xmlns="http://www.w3.org/2000/svg" xmlns:xlink="http://www.w3.org/1999/xlink">
    <!-- Generator: sketchtool 64 (101010) - https://sketch.com -->
    <title>D68021E6-148E-4876-9A56-BE1C2052E904@1.00x</title>
    <desc>Created with sketchtool.</desc>
    <g id="Symbols" stroke="none" stroke-width="1" fill="none" fill-rule="evenodd">
        <g id="wifi" fill="#232A3B">
            <g transform="translate(0.000000, 0.000000)" id="base-1">
                <path d="M8,11 C9.1045695,11 10,11.8954305 10,13 C10,14.1045695 9.1045695,15 8,15 C6.8954305,15 6,14.1045695 6,13 C6,11.8954305 6.8954305,11 8,11 Z M12.1454558,8.40670659 C12.616874,8.87812481 12.6319266,9.62739216 12.1790767,10.080242 C11.7262268,10.5330919 10.9769595,10.5180393 10.5055413,10.0466211 C9.09128659,8.63236644 6.84348456,8.58720861 5.48493489,9.94575827 C5.032085,10.3986082 4.28281766,10.3835556 3.81139944,9.91213733 C3.33998122,9.44071911 3.32492861,8.69145176 3.77777849,8.23860187 C6.04202793,5.97435243 9.78836466,6.04961548 12.1454558,8.40670659 Z M15.4925267,5.19411945 C15.9639449,5.66553767 15.9789975,6.41480502 15.5261476,6.86765491 C15.0732977,7.3205048 14.3240304,7.30545219 13.8526122,6.83403396 C10.5526846,3.53410641 5.3078132,3.42873815 2.13786398,6.59868736 C1.68501409,7.05153725 0.935746749,7.03648464 0.464328527,6.56506642 C-0.007089695,6.0936482 -0.022142304,5.34438085 0.430707584,4.89153096 C4.50635658,0.815881972 11.2497627,0.951355453 15.4925267,5.19411945 Z"></path>
            </g>
        </g>
    </g>
</svg>

<svg xmlns="http://www.w3.org/2000/svg" viewBox="0 0 16 16"><g id="wifi"><path id="base-1" d="M8 11a2 2 0 1 1 0 4 2 2 0 0 1 0-4zm4.145-2.593c.472.471.487 1.22.034 1.673-.453.453-1.202.438-1.673-.033-1.415-1.415-3.663-1.46-5.021-.101-.453.453-1.202.438-1.674-.034-.471-.471-.486-1.22-.033-1.673 2.264-2.265 6.01-2.19 8.367.168zm3.348-3.213c.47.472.486 1.22.033 1.674-.453.453-1.202.437-1.673-.034-3.3-3.3-8.545-3.405-11.715-.235-.453.453-1.202.437-1.674-.034-.471-.471-.486-1.22-.033-1.673C4.506.816 11.25.952 15.493 5.194z"/></g></svg>
